X: 011735
T: All the World Loves Me
T: Saol ar Fad i nGr\'a Liom
S: B.Breathnach:"Ceol Rince na hEireann" IV/122 
Z: B.Black
L: 1/8
M: 4/4
R: reel
K: G
D|G2 BG d2 BG|d2 BG FA A2|G2 BG d2 BG|cABG EG G :|
gfed e2 dB|gfed ea a2|gfed egdB|cABG EG G2 :|
